X: 33691
T: Randalf's Leap
R: reel
M: 4/4
K: Dmajor
"Bm"b3 a ab f2|f2 ea feef|afed fdBc|(3dcd ef "A"edcA|
"""G"B2 cF "D/F#"ABBA|"G"B2 fB e2 dc|decd BFFE|1 "A(sus4)"DEFA B2 fa:|2 "A(sus4)"DEFA B2 de||
|:"Bm"f2 Bd fg g2|fdBA B3 c|(3"D"dcd dc defa|1 "A"eA A2 cdec|
"Em9"BFBc dBdf|ecBA B3 c|"G"decd BFFE|"A(sus4)"DEFA "Bm"B2 de:|
[2 "A"eA (3Bcd efaf|"D/E"baab ffaf|feed efBc|"G"decd BFFE|"A(sus4)"DEFA "Bm"B2 fa||

